X:2163
T:Bright was the morning. FK.01
M:3/4
L:1/4
Q:80
S:Kidson's H'pipe MS,early 20thC.
R:Air
O:England
A:Leeds
Z:vmp.John Bagnall
K:Gm
dcd | B2 A | A/B/ c A | ^F2 d | B2 A | B c B/c/| d3 |!
 d e f | =B2 B | cd2 | e2 c | f2 d | d c2 |c3 |!
 d c d | B2A | A/B/ c A | ^F2 d | c/d/ e d | c A2 | G3 |]
W:Bright was the morning  cool was the air
W:Serene was all the sky
W:When on the waves I left my dear
W:The centre of my joy
W:Heaven & nature smiling were and nothing sad but I 


